images/icons/generic/eventall.svg

<!-- Generated by IcoMoon.io -->
<svg version="1.1" xmlns="http://www.w3.org/2000/svg" width="18" height="18" viewBox="0 0 18 18">
<title>eventall</title>
<path d="M2 4v10c0 1.103 0.897 2 2 2v0h10c1.103 0 2-0.897 2-2v0-10c0-1.103-0.897-2-2-2v0h-10c-1.103 0-2 0.897-2 2v0zM14 14h-10v-8h10v8z"></path>
<path d="M4 1h2v1h-2v-1z"></path>
<path d="M12 1h2v1h-2v-1z"></path>
</svg>

<?xml version="1.0" encoding="utf-8"?>
<!-- Generator: Adobe Illustrator 26.5.0, SVG Export Plug-In . SVG Version: 6.00 Build 0)  -->
<svg version="1.1" id="_x31_" xmlns="http://www.w3.org/2000/svg" xmlns:xlink="http://www.w3.org/1999/xlink" x="0px" y="0px"
	 viewBox="0 0 18 18" style="enable-background:new 0 0 18 18;" xml:space="preserve">
<path id="_x34_" d="M2,4v10c0,1.1,0.9,2,2,2l0,0h10c1.1,0,2-0.9,2-2l0,0V4c0-1.1-0.9-2-2-2l0,0H4C2.9,2,2,2.9,2,4L2,4z M14,14H4V6
	h10V14z"/>
<path id="_x33_" d="M4,1h2v1H4V1z"/>
<path id="_x32_" d="M12,1h2v1h-2V1z"/>
</svg>
